lib/logo_tmp/nrk-logo-nrk-folkemusikk-with-bg.svg

<svg width="145" height="24" viewBox="0 0 145 24" fill="none" xmlns="http://www.w3.org/2000/svg">
<rect y="-3.05176e-05" width="145" height="24" fill="#7B0A02"/>
<path d="M6.00427 18V6.00109H9.94146V18H6.00427ZM15.2981 7.91078L17.5623 18H13.2534L10.5498 6.00109H12.9664C13.5206 5.9939 14.0583 6.18925 14.4788 6.55039C14.8999 6.89638 15.1892 7.3767 15.2981 7.91078ZM18.1538 18V6.00109H22.091V18H18.1538ZM25.0647 10.5641C24.6405 10.5682 24.223 10.4572 23.8568 10.243C23.4955 10.0341 23.1954 9.73396 22.9865 9.3726C22.7721 9.00633 22.661 8.58876 22.6652 8.16432C22.6604 7.74246 22.7715 7.32738 22.9865 6.96443C23.1976 6.60699 23.4974 6.31009 23.8568 6.10252C24.2231 5.8885 24.6405 5.77751 25.0647 5.78138C25.4865 5.77684 25.9014 5.88793 26.2645 6.10252C26.6203 6.31191 26.9169 6.60856 27.1263 6.96443C27.3411 7.32748 27.4522 7.74249 27.4476 8.16432C27.4515 8.58873 27.3405 9.00623 27.1263 9.3726C26.9191 9.73238 26.6222 10.0323 26.2645 10.243C25.9014 10.458 25.4862 10.5691 25.0642 10.5641H25.0647ZM28.0559 18V6.00109H31.9934V18H28.0559ZM36.978 12.5582C36.9891 12.5699 37.0735 12.7079 37.2314 12.9723C37.3893 13.2367 37.5949 13.5747 37.8482 13.9863C38.1017 14.3977 38.3692 14.8343 38.6506 15.296C38.932 15.7577 39.1969 16.1944 39.4451 16.6058C39.6924 17.0172 39.974 17.4819 40.29 18H35.9641C35.6936 17.5606 35.4484 17.1635 35.2288 16.8086C35.0091 16.4537 34.7756 16.0706 34.5281 15.6594C34.2801 15.2485 34.0349 14.8485 33.7925 14.4595C33.5501 14.0704 33.3418 13.7296 33.1675 13.4371C32.9926 13.1443 32.8714 12.9471 32.8039 12.8455C32.6368 12.5934 32.5379 12.3023 32.517 12.0005C32.5337 11.7109 32.6269 11.431 32.787 11.1891C32.8546 11.0764 32.9786 10.8764 33.1588 10.5891C33.3391 10.3018 33.5503 9.96105 33.7925 9.56672C34.0347 9.17239 34.2799 8.7696 34.5281 8.35837C34.7763 7.94715 35.0098 7.56124 35.2288 7.20071C35.4488 6.84055 35.6939 6.44059 35.9641 6.00081H40.29L36.9439 11.4595C36.8404 11.6216 36.782 11.8083 36.7749 12.0005C36.786 12.2023 36.8565 12.3963 36.9774 12.5582H36.978Z" fill="white"/>
<path d="M45 18.0015H46.7745V13.0498H51.3037L51.4897 11.5797H46.7745V7.48963H52.9093V6.00241H45V18.0015Z" fill="#FFC7BD"/>
<path d="M59.9482 9.73799C59.2441 9.36381 58.4553 9.1775 57.6582 9.19714C56.8537 9.17881 56.0584 9.37106 55.3511 9.75484C54.6983 10.1203 54.1646 10.666 53.8135 11.3266C53.4318 12.0677 53.2428 12.893 53.2639 13.7264C53.2424 14.5532 53.4192 15.3732 53.7794 16.1178C54.1031 16.7677 54.6195 17.3018 55.2581 17.6472C55.9456 18.0074 56.713 18.1876 57.4889 18.1711C58.3012 18.1872 59.1042 17.9954 59.8214 17.6137C60.4908 17.2482 61.0398 16.6962 61.4016 16.0248C61.7942 15.2748 61.9891 14.4372 61.9678 13.5909C61.9871 12.785 61.807 11.9867 61.4436 11.2672C61.1068 10.6211 60.5866 10.0891 59.9482 9.73799ZM59.8465 15.3995C59.657 15.8388 59.3351 16.2081 58.9257 16.4558C58.5147 16.6914 58.0474 16.8112 57.5737 16.8025C57.1091 16.8141 56.6512 16.6908 56.2552 16.4476C55.8637 16.1873 55.5579 15.817 55.3764 15.3832C55.1466 14.8265 55.0373 14.2275 55.0556 13.6256C55.0357 13.0399 55.1452 12.4569 55.3764 11.9184C55.566 11.4951 55.882 11.1409 56.2809 10.9043C56.7072 10.6697 57.1884 10.553 57.6749 10.5664C58.0548 10.5568 58.4323 10.6289 58.7821 10.7776C59.0883 10.9157 59.3555 11.1278 59.5595 11.3947C59.7773 11.6845 59.9352 12.0147 60.0239 12.3662C60.1297 12.7775 60.1808 13.201 60.176 13.6256C60.1959 14.2338 60.0834 14.839 59.8465 15.3995Z" fill="#FFC7BD"/>
<path d="M66.7248 16.7591C66.6659 16.7657 66.6067 16.7687 66.5474 16.7681C66.4201 16.7718 66.2935 16.7487 66.1758 16.7003C66.0736 16.6544 65.9859 16.5813 65.9224 16.489C65.8489 16.3795 65.7999 16.2555 65.7787 16.1254C65.7481 15.9526 65.7339 15.7772 65.7364 15.6017V5.24219L64.0124 5.49573V16.3625C64.0052 16.6473 64.0511 16.9311 64.1478 17.1991C64.2287 17.417 64.3622 17.6115 64.5365 17.7653C64.7098 17.9141 64.9152 18.0211 65.1365 18.0779C65.382 18.1417 65.6348 18.1729 65.8885 18.1708C66.0237 18.1708 66.153 18.1652 66.2773 18.1542C66.4015 18.1432 66.5223 18.1261 66.6406 18.1032C66.7589 18.0804 66.8572 18.0582 66.936 18.0359L67.1051 16.7005L66.902 16.7343C66.835 16.7456 66.7758 16.7538 66.7248 16.7591Z" fill="#FFC7BD"/>
<path d="M76.1808 9.38243H74.0682L71.1763 12.5597H70.553V5.24219L68.8295 5.49573V18.0018H70.553V13.8613H70.5812L74.0341 18.0018H76.265L72.1656 13.3825L76.1808 9.38243Z" fill="#FFC7BD"/>
<path d="M83.7349 10.4725C83.4105 10.052 82.9824 9.72301 82.4927 9.51767C81.9485 9.29554 81.365 9.18625 80.7773 9.19653C80.1853 9.18651 79.5979 9.30168 79.0535 9.53452C78.5583 9.75131 78.117 10.0745 77.7607 10.481C77.3935 10.9079 77.1174 11.4054 76.9492 11.9428C76.7566 12.5579 76.6626 13.1996 76.6706 13.8441C76.6467 14.6584 76.8175 15.4667 77.1689 16.2017C77.4901 16.8386 78.0089 17.3544 78.6476 17.672C79.3972 18.025 80.2196 18.1958 81.0477 18.1705C81.4461 18.1738 81.8442 18.1484 82.2389 18.0945C82.569 18.047 82.8942 17.9706 83.2109 17.8663C83.5249 17.7609 83.83 17.6309 84.1235 17.4776L84.2418 16.1763C84.0276 16.2552 83.8106 16.3341 83.5909 16.4129C83.3712 16.4918 83.1431 16.5622 82.9067 16.6242C82.668 16.6867 82.4252 16.7318 82.18 16.7591C81.9332 16.7875 81.6849 16.8017 81.4364 16.8016C80.9926 16.8088 80.5497 16.7605 80.1179 16.6579C79.7697 16.5745 79.4475 16.4061 79.1802 16.1678C78.9103 15.9106 78.7122 15.5872 78.6057 15.2299C78.4952 14.8679 78.4333 14.493 78.4215 14.1147H84.5288C84.6121 13.4156 84.5808 12.7076 84.4359 12.0186C84.3171 11.4585 84.0779 10.931 83.7349 10.4725ZM79.476 10.8784C79.8724 10.6373 80.3304 10.5169 80.7942 10.5316C81.2584 10.5084 81.7169 10.6424 82.0955 10.9119C82.432 11.1805 82.6721 11.5512 82.7797 11.9682C82.8643 12.2765 82.9058 12.5949 82.9031 12.9145H78.4586C78.4899 12.5776 78.5619 12.2456 78.6729 11.9259C78.8174 11.4975 79.0998 11.1291 79.476 10.8784Z" fill="#FFC7BD"/>
<path d="M98.3193 9.55146C97.8586 9.30118 97.3393 9.17865 96.8153 9.19655C96.3604 9.19522 95.9088 9.27242 95.4802 9.42472C95.0449 9.58064 94.6349 9.7999 94.2636 10.0754C94.0531 10.2314 93.8528 10.4007 93.664 10.5823C93.4907 10.1592 93.1852 9.80355 92.793 9.56837C92.3266 9.31682 91.8016 9.1943 91.2721 9.21347C90.8201 9.21365 90.3714 9.29082 89.9453 9.44164C89.508 9.59552 89.0953 9.81177 88.7198 10.0838C88.5984 10.1714 88.481 10.2663 88.3649 10.3655V9.21429L86.6411 9.46784V18.0024H88.3649V11.5744C88.568 11.4414 88.7798 11.322 88.9987 11.217C89.2668 11.0904 89.5471 10.9912 89.8352 10.9212C90.1008 10.8557 90.3731 10.8217 90.6467 10.8198C90.8977 10.8122 91.1477 10.8555 91.3816 10.9469C91.5753 11.0288 91.7465 11.1562 91.8804 11.3184C92.0271 11.5068 92.1283 11.7266 92.1762 11.9606C92.242 12.2631 92.2731 12.5721 92.2691 12.8816V18.0024H93.9929V12.5264C93.9941 12.2032 93.9723 11.8802 93.9276 11.5601C94.123 11.4317 94.3253 11.3142 94.5337 11.2083C94.7972 11.0757 95.0749 10.9736 95.3615 10.904C95.6327 10.8377 95.9108 10.8037 96.19 10.8026C96.4382 10.7965 96.6851 10.8396 96.9166 10.9294C97.1138 11.0097 97.288 11.1375 97.4237 11.3014C97.5706 11.4896 97.6718 11.7094 97.7192 11.9434C97.7851 12.2458 97.8164 12.5547 97.8124 12.8642V18.0021H99.5362V12.5095C99.5577 11.8703 99.4544 11.233 99.232 10.6334C99.0567 10.1812 98.7355 9.80039 98.3193 9.55146Z" fill="#FFC7BD"/>
<path d="M107.783 15.898C107.656 15.9755 107.53 16.0476 107.403 16.1087C107.202 16.207 106.996 16.2945 106.786 16.3709C106.585 16.4435 106.379 16.5 106.169 16.54C105.955 16.5801 105.737 16.5999 105.519 16.5991C105.161 16.6128 104.806 16.5343 104.488 16.3712C104.214 16.2157 104.003 15.971 103.888 15.678C103.749 15.3144 103.682 14.9268 103.693 14.5375V9.21402L101.97 9.4675V14.8415C101.949 15.4828 102.061 16.1215 102.299 16.7174C102.495 17.1874 102.847 17.5755 103.296 17.8159C103.797 18.0655 104.351 18.1875 104.91 18.1711C105.264 18.1735 105.616 18.1309 105.958 18.0444C106.285 17.9598 106.6 17.8349 106.896 17.6726C107.201 17.5051 107.489 17.3098 107.758 17.0892C107.807 17.0489 107.856 17.0016 107.906 16.9591L108.155 18.0013H109.49L109.507 9.2132L107.783 9.46667V15.898Z" fill="#FFC7BD"/>
<path d="M117.484 14.1148C117.311 13.9311 117.111 13.7744 116.892 13.6498C116.665 13.5199 116.428 13.4096 116.182 13.3202C116.002 13.2639 115.825 13.2047 115.65 13.1428C115.475 13.0808 115.301 13.0244 115.126 12.9737C114.951 12.923 114.782 12.8696 114.619 12.8132C114.466 12.7611 114.316 12.699 114.171 12.6273C114.032 12.5535 113.899 12.4687 113.774 12.3738C113.658 12.2865 113.56 12.1775 113.487 12.0527C113.412 11.9246 113.374 11.7785 113.377 11.6302C113.372 11.4673 113.413 11.3063 113.495 11.1654C113.583 11.0271 113.706 10.9136 113.85 10.8359C114.027 10.7389 114.218 10.6704 114.416 10.6328C114.664 10.5855 114.916 10.563 115.168 10.5655C115.292 10.5655 115.427 10.5714 115.574 10.5824C115.72 10.5933 115.881 10.6137 116.055 10.6418C116.23 10.67 116.405 10.7066 116.579 10.7511C116.754 10.7956 116.931 10.8472 117.112 10.9035C117.279 10.9549 117.442 11.0171 117.602 11.0897L117.72 9.72051C117.506 9.63056 117.295 9.55158 117.086 9.48361C116.878 9.41631 116.667 9.35987 116.453 9.31458C116.244 9.2704 116.032 9.2394 115.819 9.22167C115.61 9.20477 115.405 9.1963 115.202 9.1963C114.735 9.19151 114.27 9.24547 113.816 9.35687C113.429 9.45126 113.06 9.61129 112.726 9.83005C112.424 10.0302 112.177 10.3034 112.008 10.6244C111.831 10.9781 111.744 11.3699 111.754 11.7652C111.749 12.0498 111.795 12.3332 111.89 12.6017C111.97 12.8271 112.09 13.0361 112.245 13.2185C112.395 13.391 112.568 13.5418 112.76 13.6664C112.959 13.7975 113.172 13.9079 113.394 13.996C113.517 14.0412 113.647 14.0862 113.782 14.1309C113.918 14.1756 114.05 14.218 114.18 14.2582C114.309 14.2976 114.436 14.3369 114.56 14.3762C114.684 14.4159 114.805 14.4551 114.923 14.4945C115.041 14.5339 115.157 14.5705 115.27 14.6043C115.421 14.6579 115.568 14.7228 115.709 14.7987C115.833 14.8643 115.949 14.9437 116.055 15.0353C116.149 15.117 116.224 15.2179 116.275 15.3311C116.327 15.448 116.353 15.5747 116.351 15.7025C116.357 15.8276 116.335 15.9525 116.287 16.068C116.239 16.1836 116.165 16.2869 116.072 16.3707C115.863 16.5453 115.613 16.6644 115.346 16.7168C115.032 16.786 114.712 16.8201 114.391 16.8183C114.19 16.817 113.99 16.8029 113.791 16.776C113.571 16.7478 113.34 16.7084 113.098 16.6577C112.856 16.607 112.608 16.5451 112.354 16.4718C112.101 16.3986 111.845 16.317 111.585 16.227L111.653 17.6636C111.946 17.765 112.213 17.8466 112.456 17.9086C112.698 17.9705 112.929 18.0241 113.149 18.0691C113.36 18.113 113.575 18.1413 113.791 18.1537C113.999 18.1647 114.21 18.1703 114.425 18.1703C114.896 18.1727 115.366 18.1244 115.827 18.0263C116.233 17.944 116.622 17.7927 116.977 17.5788C117.296 17.3836 117.561 17.1102 117.746 16.7844C117.939 16.427 118.035 16.025 118.024 15.6186C118.031 15.3221 117.983 15.0269 117.881 14.7483C117.79 14.5137 117.655 14.2987 117.484 14.1148Z" fill="#FFC7BD"/>
<path d="M121.547 5.67287C121.372 5.56566 121.17 5.51 120.964 5.5123C120.756 5.51073 120.551 5.56628 120.373 5.67287C120.197 5.77622 120.049 5.92133 119.942 6.09538C119.835 6.27076 119.779 6.47287 119.781 6.67845C119.78 6.88662 119.835 7.09122 119.942 7.26992C120.045 7.44675 120.194 7.59266 120.373 7.69242C120.553 7.79375 120.757 7.84619 120.964 7.84453C121.169 7.8469 121.37 7.79436 121.547 7.69242C121.721 7.59193 121.864 7.44584 121.961 7.26992C122.063 7.08937 122.115 6.8855 122.113 6.67845C122.116 6.474 122.063 6.27265 121.961 6.09538C121.861 5.92211 121.718 5.77684 121.547 5.67287Z" fill="#FFC7BD"/>
<path d="M120.069 18.0015H121.793V9.21347L120.069 9.46695V18.0015Z" fill="#FFC7BD"/>
<path d="M131.781 9.38243H129.669L126.777 12.5597H126.153V5.24219L124.43 5.49573V18.0018H126.153V13.8613H126.182L129.634 18.0018H131.865L127.766 13.3825L131.781 9.38243Z" fill="#FFC7BD"/>
<path d="M138.507 18.0015H140.738L136.639 13.3822L140.654 9.38243H138.541L135.649 12.5597H135.026V5.24219L133.302 5.49573V18.0018H135.026V13.8613H135.054L138.507 18.0015Z" fill="#FFC7BD"/>
</svg>

<svg xmlns="http://www.w3.org/2000/svg" viewBox="0 0 145 24"><path fill="#7B0A02" d="M0 0h145v24H0z"/><path fill="#fff" d="M6.004 18V6.001h3.937V18H6.004Zm9.294-10.09L17.562 18h-4.309L10.55 6.001h2.416a2.276 2.276 0 0 1 1.513.55c.42.345.71.826.82 1.36ZM18.154 18V6.001h3.937V18h-3.937Zm6.91-7.436a2.383 2.383 0 0 1-2.4-2.4 2.303 2.303 0 0 1 .323-1.2 2.411 2.411 0 0 1 3.278-.861c.355.209.652.506.861.861.215.363.326.778.322 1.2a2.4 2.4 0 0 1-1.183 2.079 2.302 2.302 0 0 1-1.2.321ZM28.057 18V6.001h3.937V18h-3.937Zm8.922-5.442c.011.012.096.15.253.414.158.265.364.603.617 1.014a315.936 315.936 0 0 1 1.597 2.62c.247.411.529.876.845 1.394h-4.326c-.27-.44-.516-.837-.735-1.191-.22-.355-.453-.738-.7-1.15-.249-.41-.494-.81-.737-1.2-.242-.389-.45-.73-.625-1.022-.174-.293-.296-.49-.363-.591a1.748 1.748 0 0 1-.287-.845c.017-.29.11-.57.27-.812.068-.113.192-.313.372-.6s.391-.628.633-1.022c.243-.395.488-.797.736-1.209l.7-1.157.736-1.2h4.326l-3.346 5.458a1.08 1.08 0 0 0-.17.542c.012.201.082.395.203.557h.001Z"/><path fill="#FFC7BD" d="M45 18.002h1.775V13.05h4.529l.186-1.47h-4.715V7.49h6.134V6.002H45v12ZM59.948 9.738a4.637 4.637 0 0 0-2.29-.54 4.617 4.617 0 0 0-2.307.557 3.897 3.897 0 0 0-1.538 1.572 4.967 4.967 0 0 0-.55 2.4 5.182 5.182 0 0 0 .516 2.39c.324.65.84 1.185 1.48 1.53.687.36 1.454.54 2.23.524a4.764 4.764 0 0 0 2.332-.557 3.94 3.94 0 0 0 1.58-1.59c.393-.75.588-1.587.567-2.433a4.895 4.895 0 0 0-.524-2.324 3.694 3.694 0 0 0-1.496-1.529Zm-.102 5.662c-.189.439-.51.808-.92 1.056a2.622 2.622 0 0 1-1.352.346 2.405 2.405 0 0 1-1.319-.354 2.382 2.382 0 0 1-.879-1.065 4.267 4.267 0 0 1-.32-1.757c-.02-.586.09-1.17.32-1.708.19-.423.506-.777.905-1.014a2.735 2.735 0 0 1 1.394-.338c.38-.01.757.063 1.107.212.306.138.574.35.778.617.217.29.375.62.464.971.106.412.157.835.152 1.26a4.203 4.203 0 0 1-.33 1.774ZM66.725 16.76a1.46 1.46 0 0 1-.178.008.908.908 0 0 1-.371-.068.612.612 0 0 1-.254-.211.917.917 0 0 1-.143-.364 2.777 2.777 0 0 1-.043-.523V5.242l-1.724.254v10.867c-.007.284.04.568.136.836a1.41 1.41 0 0 0 .989.879c.245.064.498.095.751.093.136 0 .265-.006.39-.017a3.66 3.66 0 0 0 .659-.118l.168-1.335-.203.033c-.067.012-.126.02-.177.025ZM76.18 9.382h-2.112l-2.892 3.178h-.623V5.242l-1.724.254v12.506h1.724v-4.14h.028l3.453 4.14h2.231l-4.1-4.62 4.016-4ZM83.735 10.473a3.067 3.067 0 0 0-1.242-.955 4.338 4.338 0 0 0-1.716-.321 4.203 4.203 0 0 0-1.724.338c-.495.216-.936.54-1.292.946a4.136 4.136 0 0 0-.812 1.462 6.109 6.109 0 0 0-.278 1.901 5.118 5.118 0 0 0 .498 2.358c.321.637.84 1.152 1.479 1.47.75.353 1.572.524 2.4.498.398.004.796-.022 1.19-.076.331-.047.656-.123.973-.228.314-.105.619-.235.913-.388l.118-1.302c-.214.08-.431.158-.651.237-.22.079-.448.15-.684.211a5.094 5.094 0 0 1-.727.135 6.482 6.482 0 0 1-.744.043 5.33 5.33 0 0 1-1.318-.144 2.168 2.168 0 0 1-.938-.49 2.14 2.14 0 0 1-.574-.938 4.276 4.276 0 0 1-.184-1.115h6.107c.083-.7.052-1.407-.093-2.096a3.949 3.949 0 0 0-.701-1.546Zm-4.259.405a2.39 2.39 0 0 1 1.318-.346c.464-.024.923.11 1.302.38.336.268.576.64.684 1.056.084.309.126.627.123.947H78.46c.03-.337.103-.67.214-.99.144-.428.427-.796.803-1.047ZM98.32 9.551a2.94 2.94 0 0 0-1.505-.354 3.953 3.953 0 0 0-1.335.228 4.704 4.704 0 0 0-1.216.65 6.13 6.13 0 0 0-.6.507 2.118 2.118 0 0 0-.871-1.014 2.977 2.977 0 0 0-1.52-.355c-.453 0-.902.078-1.328.229a4.81 4.81 0 0 0-1.58.924V9.214l-1.724.254v8.534h1.724v-6.428c.203-.133.415-.252.634-.357.268-.127.548-.226.836-.296.266-.065.538-.1.812-.101.25-.008.5.035.735.127.193.082.364.21.498.371.147.189.248.409.296.643.066.302.097.611.093.92v5.121h1.724v-5.476a6.805 6.805 0 0 0-.065-.966c.195-.128.397-.246.606-.352.263-.132.54-.234.828-.304.27-.066.549-.1.828-.101.248-.007.495.037.727.126.197.08.371.208.507.372.147.189.248.408.295.642.066.303.097.612.093.921v5.138h1.724V12.51a4.92 4.92 0 0 0-.304-1.877 2.178 2.178 0 0 0-.913-1.082ZM107.783 15.898a4.39 4.39 0 0 1-.38.21 6.332 6.332 0 0 1-.617.263 4.04 4.04 0 0 1-.617.169c-.214.04-.432.06-.65.06a2.084 2.084 0 0 1-1.031-.229 1.372 1.372 0 0 1-.6-.693 2.96 2.96 0 0 1-.195-1.14V9.213l-1.723.253v5.374c-.021.642.091 1.28.329 1.876.196.47.548.859.997 1.099.501.25 1.055.372 1.614.355.354.003.706-.04 1.048-.127.327-.084.642-.21.938-.371.305-.168.593-.363.862-.584.049-.04.098-.087.148-.13l.249 1.042h1.335l.017-8.788-1.724.254v6.431ZM117.484 14.115a2.536 2.536 0 0 0-.592-.465 4.574 4.574 0 0 0-.71-.33c-.18-.056-.357-.115-.532-.177a9.399 9.399 0 0 0-.524-.17 10.41 10.41 0 0 1-.507-.16 3.708 3.708 0 0 1-.448-.186 2.926 2.926 0 0 1-.397-.253 1.094 1.094 0 0 1-.287-.321.804.804 0 0 1-.11-.423.871.871 0 0 1 .118-.465.963.963 0 0 1 .355-.33c.177-.096.368-.165.566-.202.248-.047.5-.07.752-.067a5.477 5.477 0 0 1 .887.076c.175.028.35.065.524.11.175.044.352.095.533.151.167.052.33.114.49.187l.118-1.37a8.107 8.107 0 0 0-.634-.236 6.276 6.276 0 0 0-.633-.17 5.121 5.121 0 0 0-.634-.092 7.642 7.642 0 0 0-.617-.026 5.572 5.572 0 0 0-1.386.16 3.507 3.507 0 0 0-1.09.474 2.16 2.16 0 0 0-.718.794 2.413 2.413 0 0 0-.254 1.141c-.005.285.041.568.136.837.08.225.2.434.355.617.15.172.323.323.515.447a3.5 3.5 0 0 0 .634.33c.123.045.253.09.388.135.136.045.268.087.398.127a38.039 38.039 0 0 1 .743.237c.118.039.234.075.347.11.151.053.298.118.439.194.124.065.24.145.346.236a.86.86 0 0 1 .296.668.847.847 0 0 1-.279.668 1.62 1.62 0 0 1-.726.346c-.314.069-.634.103-.955.101a4.701 4.701 0 0 1-.6-.042 8.913 8.913 0 0 1-.693-.118c-.242-.051-.49-.113-.744-.186a15.636 15.636 0 0 1-.769-.245l.068 1.437c.293.101.56.183.803.245.242.062.473.115.693.16.211.044.426.072.642.085.208.01.419.016.634.016.471.003.941-.046 1.402-.144a3.623 3.623 0 0 0 1.15-.447c.319-.195.584-.469.769-.795.193-.357.289-.759.278-1.165a2.368 2.368 0 0 0-.143-.87 1.985 1.985 0 0 0-.397-.634ZM121.547 5.673a1.092 1.092 0 0 0-.583-.16 1.135 1.135 0 0 0-.591.16 1.248 1.248 0 0 0-.431.422 1.1 1.1 0 0 0-.161.583 1.14 1.14 0 0 0 .161.592c.103.177.252.323.431.422.18.102.384.154.591.153.205.002.406-.05.583-.153.174-.1.317-.246.414-.422.102-.18.154-.384.152-.592a1.136 1.136 0 0 0-.152-.583 1.194 1.194 0 0 0-.414-.422ZM120.069 18.002h1.724V9.213l-1.724.254v8.534ZM131.781 9.382h-2.112l-2.892 3.178h-.624V5.242l-1.723.254v12.506h1.723v-4.14h.029l3.452 4.14h2.231l-4.099-4.62 4.015-4ZM138.507 18.002h2.231l-4.099-4.62 4.015-4h-2.113l-2.892 3.178h-.623V5.242l-1.724.254v12.506h1.724v-4.14h.028l3.453 4.14Z"/></svg>
